images/head.svg

<svg width="37" height="37" viewBox="0 0 37 37" fill="none" xmlns="http://www.w3.org/2000/svg">
<path d="M18.2526 33.8121C15.21 33.8121 12.2358 32.9149 9.70596 31.234C7.17614 29.5531 5.20438 27.1639 4.04003 24.3687C2.87568 21.5734 2.57104 18.4976 3.16462 15.5301C3.7582 12.5627 5.22334 9.83692 7.37478 7.69751C9.52622 5.55811 12.2673 4.10116 15.2514 3.51089C18.2356 2.92063 21.3287 3.22358 24.1397 4.38141C26.9507 5.53925 29.3533 7.49998 31.0436 10.0157C32.734 12.5313 33.6362 15.489 33.6362 18.5145C33.6323 22.5705 32.0102 26.4592 29.1261 29.3272C26.242 32.1952 22.3314 33.8082 18.2526 33.8121V33.8121ZM18.2526 4.70072C15.5052 4.70072 12.8194 5.51088 10.5349 7.02876C8.25048 8.54665 6.46997 10.7041 5.41856 13.2282C4.36714 15.7524 4.09205 18.5299 4.62805 21.2095C5.16406 23.8891 6.4871 26.3505 8.42986 28.2824C10.3726 30.2143 12.8478 31.5299 15.5425 32.0629C18.2372 32.5959 21.0303 32.3224 23.5687 31.2768C26.107 30.2313 28.2766 28.4607 29.803 26.1891C31.3294 23.9174 32.1441 21.2466 32.1441 18.5145C32.1362 14.8533 30.6702 11.3442 28.0667 8.75535C25.4632 6.16645 21.9345 4.70856 18.2526 4.70072Z" fill="#95E1D3"/>
<path d="M12.4484 24.4496C11.6368 24.4496 10.8435 24.2103 10.1687 23.7619C9.49391 23.3135 8.96798 22.6763 8.65741 21.9307C8.34684 21.1851 8.26558 20.3647 8.42391 19.5732C8.58223 18.7817 8.97303 18.0546 9.54689 17.484C10.1207 16.9133 10.8519 16.5247 11.6478 16.3673C12.4438 16.2098 13.2688 16.2906 14.0186 16.5995C14.7684 16.9083 15.4092 17.4313 15.8601 18.1023C16.311 18.7733 16.5516 19.5622 16.5516 20.3692C16.5516 20.9051 16.4455 21.4357 16.2393 21.9307C16.0331 22.4258 15.7308 22.8756 15.3498 23.2545C14.9688 23.6334 14.5164 23.9339 14.0186 24.139C13.5208 24.344 12.9872 24.4496 12.4484 24.4496V24.4496ZM12.4484 17.7726C11.9288 17.7729 11.4211 17.9272 10.9902 18.2159C10.5593 18.5047 10.2249 18.9147 10.0296 19.3935C9.83437 19.8723 9.7872 20.3981 9.89415 20.9037C10.0011 21.4093 10.2573 21.8717 10.63 22.2317C11.0027 22.5917 11.4749 22.833 11.9862 22.9246C12.4975 23.0163 13.0248 22.9542 13.5004 22.7462C13.976 22.5382 14.3785 22.1939 14.6562 21.7573C14.9339 21.3206 15.0744 20.8115 15.0595 20.295C15.0556 19.6076 14.7793 18.9494 14.2904 18.4633C13.8016 17.9772 13.1397 17.7023 12.4484 17.6985V17.7726Z" fill="#95E1D3"/>
<path d="M24.0569 24.4496C23.2454 24.4496 22.4521 24.2103 21.7773 23.7619C21.1025 23.3135 20.5766 22.6763 20.266 21.9307C19.9554 21.1851 19.8742 20.3647 20.0325 19.5732C20.1908 18.7817 20.5816 18.0546 21.1555 17.484C21.7293 16.9133 22.4605 16.5247 23.2564 16.3673C24.0524 16.2098 24.8774 16.2906 25.6272 16.5995C26.377 16.9083 27.0178 17.4313 27.4687 18.1023C27.9196 18.7733 28.1602 19.5622 28.1602 20.3692C28.1602 21.4514 27.7279 22.4892 26.9584 23.2545C26.1889 24.0197 25.1452 24.4496 24.0569 24.4496ZM24.0569 17.7726C23.5405 17.7726 23.0356 17.9249 22.6062 18.2102C22.1768 18.4956 21.8422 18.9011 21.6445 19.3756C21.4469 19.85 21.3952 20.3721 21.4959 20.8758C21.5967 21.3795 21.8454 21.8421 22.2105 22.2053C22.5757 22.5684 23.041 22.8157 23.5475 22.9159C24.054 23.0161 24.5791 22.9647 25.0562 22.7682C25.5333 22.5716 25.9411 22.2388 26.2281 21.8118C26.515 21.3848 26.6681 20.8828 26.6681 20.3692C26.6781 20.022 26.6179 19.6764 26.4912 19.3528C26.3644 19.0291 26.1737 18.734 25.9302 18.485C25.6867 18.236 25.3955 18.0381 25.0737 17.903C24.752 17.7679 24.4062 17.6983 24.0569 17.6985V17.7726Z" fill="#95E1D3"/>
<path d="M3.95825 16.0812C3.78627 16.0812 3.61955 16.0221 3.48632 15.914C3.35308 15.8058 3.26152 15.6552 3.22712 15.4877C3.19149 15.2952 3.2322 15.0966 3.3407 14.9334C3.44919 14.7701 3.61705 14.655 3.80904 14.6122C3.97317 14.5826 20.1178 11.0957 24.4598 5.16069C24.5175 5.08161 24.5903 5.01463 24.674 4.9636C24.7578 4.91257 24.8509 4.8785 24.9479 4.86333C25.045 4.84817 25.1441 4.85221 25.2395 4.87523C25.335 4.89825 25.425 4.93979 25.5043 4.99747C25.6616 5.11569 25.7667 5.29006 25.7973 5.48382C25.828 5.67757 25.7817 5.87558 25.6684 6.03611C20.9832 12.4311 4.82367 15.918 4.12239 16.0663L3.95825 16.0812Z" fill="#95E1D3"/>
<path d="M28.6974 13.6181C25.0009 13.4955 21.3589 12.6957 17.9542 11.2589C17.7722 11.1802 17.6291 11.0328 17.5563 10.8492C17.4835 10.6655 17.4871 10.4607 17.5663 10.2797C17.6454 10.0986 17.7936 9.95629 17.9783 9.88395C18.163 9.8116 18.369 9.81517 18.5511 9.89387C18.6257 9.89387 25.6236 12.9949 31.5025 11.897C31.6982 11.862 31.8998 11.9045 32.0643 12.0154C32.2288 12.1263 32.3432 12.2968 32.3829 12.4905C32.4178 12.6832 32.3746 12.8818 32.2628 13.043C32.151 13.2043 31.9796 13.315 31.786 13.351C30.7676 13.539 29.7332 13.6285 28.6974 13.6181V13.6181Z" fill="#95E1D3"/>
<path d="M20.6997 21.0369H15.8056C15.6077 21.0369 15.418 20.9588 15.2781 20.8196C15.1381 20.6805 15.0595 20.4918 15.0595 20.295C15.0634 20.0995 15.1432 19.913 15.2823 19.7747C15.4214 19.6363 15.6089 19.557 15.8056 19.5532H20.6997C20.8964 19.557 21.0839 19.6363 21.223 19.7747C21.3621 19.913 21.4419 20.0995 21.4458 20.295C21.4458 20.4918 21.3671 20.6805 21.2272 20.8196C21.0873 20.9588 20.8976 21.0369 20.6997 21.0369Z" fill="#95E1D3"/>
<path d="M9.09111 21.0369H3.73446C3.53659 21.0369 3.34683 20.9588 3.20692 20.8196C3.06701 20.6805 2.9884 20.4918 2.9884 20.295C2.99222 20.0995 3.07205 19.913 3.21114 19.7747C3.35024 19.6363 3.53779 19.557 3.73446 19.5532H9.09111C9.28898 19.5532 9.47874 19.6313 9.61865 19.7705C9.75856 19.9096 9.83717 20.0983 9.83717 20.295C9.83717 20.4918 9.75856 20.6805 9.61865 20.8196C9.47874 20.9588 9.28898 21.0369 9.09111 21.0369Z" fill="#95E1D3"/>
<path d="M32.7858 21.0369H27.4142C27.2163 21.0369 27.0265 20.9588 26.8866 20.8196C26.7467 20.6805 26.6681 20.4918 26.6681 20.295C26.6681 20.0983 26.7467 19.9096 26.8866 19.7705C27.0265 19.6313 27.2163 19.5532 27.4142 19.5532H32.7858C32.9836 19.5532 33.1734 19.6313 33.3133 19.7705C33.4532 19.9096 33.5318 20.0983 33.5318 20.295C33.5318 20.4918 33.4532 20.6805 33.3133 20.8196C33.1734 20.9588 32.9836 21.0369 32.7858 21.0369Z" fill="#95E1D3"/>
</svg>

<svg width="37" height="37" fill="none" xmlns="http://www.w3.org/2000/svg"><path d="M18.253 33.812c-3.043 0-6.017-.897-8.547-2.578a15.317 15.317 0 0 1-5.666-6.865 15.218 15.218 0 0 1-.875-8.839 15.271 15.271 0 0 1 4.21-7.832A15.41 15.41 0 0 1 15.25 3.51a15.464 15.464 0 0 1 8.889.87 15.365 15.365 0 0 1 6.904 5.635 15.236 15.236 0 0 1 2.592 8.499 15.27 15.27 0 0 1-4.51 10.812 15.442 15.442 0 0 1-10.873 4.485Zm0-29.111c-2.748 0-5.434.81-7.718 2.328a13.831 13.831 0 0 0-5.116 6.2 13.742 13.742 0 0 0-.79 7.98 13.79 13.79 0 0 0 3.8 7.073 13.915 13.915 0 0 0 7.114 3.78c2.694.534 5.487.26 8.026-.785a13.875 13.875 0 0 0 6.234-5.088 13.76 13.76 0 0 0 2.341-7.674 13.804 13.804 0 0 0-4.077-9.76 13.961 13.961 0 0 0-9.814-4.054Z" fill="#95E1D3"/><path d="M12.448 24.45a4.12 4.12 0 0 1-2.28-.688 4.086 4.086 0 0 1-1.51-1.831 4.06 4.06 0 0 1 .889-4.447 4.124 4.124 0 0 1 4.472-.885c.75.31 1.39.832 1.841 1.503a4.064 4.064 0 0 1-.51 5.152 4.106 4.106 0 0 1-2.902 1.196Zm0-6.677c-.52 0-1.027.154-1.458.443a2.583 2.583 0 0 0-.36 4.016 2.616 2.616 0 0 0 2.87.514 2.608 2.608 0 0 0 1.156-.989c.278-.436.418-.946.403-1.462a2.604 2.604 0 0 0-.769-1.832 2.633 2.633 0 0 0-1.842-.765v.075ZM24.057 24.45a4.12 4.12 0 0 1-2.28-.688 4.086 4.086 0 0 1-1.511-1.831 4.06 4.06 0 0 1 .89-4.447 4.124 4.124 0 0 1 4.472-.885c.749.31 1.39.832 1.84 1.503a4.064 4.064 0 0 1-.51 5.152 4.115 4.115 0 0 1-2.901 1.196Zm0-6.677c-.516 0-1.021.152-1.45.437a2.584 2.584 0 0 0-.396 3.995 2.616 2.616 0 0 0 2.845.563 2.61 2.61 0 0 0 1.172-.956c.287-.427.44-.93.44-1.443a2.584 2.584 0 0 0-.738-1.884 2.612 2.612 0 0 0-1.873-.787v.075ZM3.958 16.081a.75.75 0 0 1-.73-.593.753.753 0 0 1 .581-.876c.164-.03 16.309-3.516 20.65-9.451a.746.746 0 0 1 1.21.875c-4.686 6.395-20.845 9.882-21.547 10.03l-.164.015Z" fill="#95E1D3"/><path d="M28.697 13.618a30.209 30.209 0 0 1-10.743-2.36.746.746 0 0 1-.388-.978.746.746 0 0 1 .985-.386c.075 0 7.073 3.1 12.952 2.003a.764.764 0 0 1 .88.594.738.738 0 0 1-.597.86 16.123 16.123 0 0 1-3.089.267ZM20.7 21.037h-4.894a.748.748 0 0 1-.746-.742.755.755 0 0 1 .746-.742H20.7a.763.763 0 0 1 .746.742.748.748 0 0 1-.746.742ZM9.091 21.037H3.734a.748.748 0 0 1-.746-.742.755.755 0 0 1 .746-.742h5.357a.748.748 0 0 1 .746.742.748.748 0 0 1-.746.742ZM32.786 21.037h-5.372a.748.748 0 0 1-.746-.742.748.748 0 0 1 .746-.742h5.372a.748.748 0 0 1 .746.742.74.74 0 0 1-.746.742Z" fill="#95E1D3"/></svg>
